media/img/burger_button.svg

<svg fill="none" height="30" viewBox="0 0 30 30" width="30" xmlns="http://www.w3.org/2000/svg"><path d="m3.75 7.5c0-.33152.1317-.64946.36612-.88388s.55236-.36612.88388-.36612h20c.3315 0 .6495.1317.8839.36612s.3661.55236.3661.88388-.1317.64946-.3661.88388-.5524.36612-.8839.36612h-20c-.33152 0-.64946-.1317-.88388-.36612s-.36612-.55236-.36612-.88388zm21.25 6.25h-20c-.33152 0-.64946.1317-.88388.3661s-.36612.5524-.36612.8839.1317.6495.36612.8839.55236.3661.88388.3661h20c.3315 0 .6495-.1317.8839-.3661s.3661-.5524.3661-.8839-.1317-.6495-.3661-.8839-.5524-.3661-.8839-.3661zm0 7.5h-20c-.33152 0-.64946.1317-.88388.3661s-.36612.5524-.36612.8839.1317.6495.36612.8839.55236.3661.88388.3661h20c.3315 0 .6495-.1317.8839-.3661s.3661-.5524.3661-.8839-.1317-.6495-.3661-.8839-.5524-.3661-.8839-.3661z" fill="#fff"/></svg>

<svg width="30" height="30" viewBox="0 0 30 30" fill="none" xmlns="http://www.w3.org/2000/svg">
<path d="M3.75 7.5C3.75 7.16848 3.8817 6.85054 4.11612 6.61612C4.35054 6.3817 4.66848 6.25 5 6.25H25C25.3315 6.25 25.6495 6.3817 25.8839 6.61612C26.1183 6.85054 26.25 7.16848 26.25 7.5C26.25 7.83152 26.1183 8.14946 25.8839 8.38388C25.6495 8.6183 25.3315 8.75 25 8.75H5C4.66848 8.75 4.35054 8.6183 4.11612 8.38388C3.8817 8.14946 3.75 7.83152 3.75 7.5ZM25 13.75H5C4.66848 13.75 4.35054 13.8817 4.11612 14.1161C3.8817 14.3505 3.75 14.6685 3.75 15C3.75 15.3315 3.8817 15.6495 4.11612 15.8839C4.35054 16.1183 4.66848 16.25 5 16.25H25C25.3315 16.25 25.6495 16.1183 25.8839 15.8839C26.1183 15.6495 26.25 15.3315 26.25 15C26.25 14.6685 26.1183 14.3505 25.8839 14.1161C25.6495 13.8817 25.3315 13.75 25 13.75ZM25 21.25H5C4.66848 21.25 4.35054 21.3817 4.11612 21.6161C3.8817 21.8505 3.75 22.1685 3.75 22.5C3.75 22.8315 3.8817 23.1495 4.11612 23.3839C4.35054 23.6183 4.66848 23.75 5 23.75H25C25.3315 23.75 25.6495 23.6183 25.8839 23.3839C26.1183 23.1495 26.25 22.8315 26.25 22.5C26.25 22.1685 26.1183 21.8505 25.8839 21.6161C25.6495 21.3817 25.3315 21.25 25 21.25Z" fill="white"/>
</svg>
